src/assets/images/Original-Graphics/6.svg

<svg xmlns="http://www.w3.org/2000/svg" xmlns:xlink="http://www.w3.org/1999/xlink" width="100" zoomAndPan="magnify" viewBox="0 0 75 74.999997" height="100" preserveAspectRatio="xMidYMid meet" version="1.0"><defs><clipPath id="863412922a"><path d="M 17.488281 15.894531 L 57.238281 15.894531 L 57.238281 59.394531 L 17.488281 59.394531 Z M 17.488281 15.894531 " clip-rule="nonzero"/></clipPath></defs><g clip-path="url(#863412922a)"><path fill="#b13ed9" d="M 22.210938 51.046875 L 25.238281 51.046875 C 25.394531 51.046875 25.519531 51.175781 25.519531 51.328125 L 25.519531 58.796875 C 25.519531 58.953125 25.394531 59.078125 25.238281 59.078125 L 17.769531 59.078125 C 17.613281 59.078125 17.488281 58.953125 17.488281 58.796875 L 17.488281 51.328125 C 17.488281 51.175781 17.613281 51.046875 17.769531 51.046875 L 20.796875 51.046875 L 20.796875 46.324219 C 20.796875 45.933594 21.113281 45.617188 21.503906 45.617188 L 36.265625 45.617188 L 36.265625 41.1875 C 36.265625 40.796875 36.582031 40.476562 36.972656 40.476562 C 37.363281 40.476562 37.679688 40.796875 37.679688 41.1875 L 37.679688 45.617188 L 53.0625 45.617188 C 53.453125 45.617188 53.769531 45.933594 53.769531 46.324219 L 53.769531 52.273438 L 57.457031 58.65625 C 57.507812 58.746094 57.507812 58.851562 57.457031 58.9375 C 57.40625 59.027344 57.3125 59.078125 57.210938 59.078125 L 48.914062 59.078125 C 48.8125 59.078125 48.71875 59.027344 48.667969 58.9375 C 48.617188 58.851562 48.617188 58.746094 48.667969 58.65625 L 52.355469 52.273438 L 52.355469 47.03125 L 37.679688 47.03125 L 37.679688 51.109375 C 39.558594 51.445312 40.988281 53.089844 40.988281 55.0625 C 40.988281 57.28125 39.1875 59.078125 36.972656 59.078125 C 34.753906 59.078125 32.957031 57.28125 32.957031 55.0625 C 32.957031 53.089844 34.386719 51.445312 36.265625 51.109375 L 36.265625 47.03125 L 22.210938 47.03125 Z M 30.890625 18.304688 C 31.425781 17.195312 32.558594 16.429688 33.871094 16.429688 C 34.601562 16.429688 35.277344 16.667969 35.824219 17.074219 C 36.417969 16.386719 37.292969 15.953125 38.269531 15.953125 C 39.050781 15.953125 39.765625 16.230469 40.324219 16.6875 C 41.023438 16.203125 41.871094 15.921875 42.785156 15.921875 C 44.410156 15.921875 45.824219 16.8125 46.566406 18.136719 C 48.308594 18.460938 49.664062 19.902344 49.863281 21.722656 C 50.863281 22.414062 51.5 23.539062 51.5 24.808594 C 51.5 25.253906 51.421875 25.683594 51.273438 26.085938 C 51.667969 26.664062 51.898438 27.355469 51.898438 28.105469 C 51.898438 28.859375 51.664062 29.5625 51.234375 30.140625 C 51.367188 30.558594 51.433594 31.007812 51.433594 31.46875 C 51.433594 33.617188 49.816406 35.382812 47.734375 35.625 C 47.207031 36.53125 46.28125 37.183594 45.199219 37.339844 L 45.730469 38.257812 C 46.417969 39.449219 46.003906 40.988281 44.8125 41.675781 C 43.621094 42.367188 42.082031 41.953125 41.394531 40.761719 C 41.394531 40.761719 40.222656 38.726562 40.222656 38.726562 C 39.285156 38.890625 38.410156 38.550781 37.695312 37.9375 C 36.921875 37.273438 36.34375 36.28125 36.097656 35.367188 C 36.046875 35.175781 36.003906 34.980469 35.976562 34.789062 C 35.238281 34.664062 34.5625 34.355469 34.003906 33.90625 C 33.460938 34.464844 32.703125 34.816406 31.863281 34.816406 C 30.566406 34.816406 29.460938 33.984375 29.046875 32.828125 C 28.097656 32.878906 27.171875 32.476562 26.566406 31.71875 C 26.5 31.722656 26.429688 31.726562 26.359375 31.726562 C 24.003906 31.726562 22.539062 29.359375 23.34375 27.296875 C 22.628906 25.582031 23.398438 23.578125 25.140625 22.882812 C 25.425781 21.34375 26.785156 20.175781 28.394531 20.175781 C 28.441406 20.175781 28.488281 20.175781 28.535156 20.175781 C 28.96875 19.226562 29.839844 18.515625 30.890625 18.304688 Z M 28.113281 31.210938 C 28.484375 31.421875 28.941406 31.476562 29.375 31.339844 C 29.578125 31.277344 29.800781 31.308594 29.980469 31.425781 C 30.160156 31.546875 30.273438 31.738281 30.292969 31.953125 C 30.363281 32.761719 31.039062 33.398438 31.863281 33.398438 C 32.339844 33.398438 32.765625 33.1875 33.050781 32.851562 C 32.621094 32.179688 32.371094 31.378906 32.371094 30.523438 C 32.371094 30.132812 32.691406 29.816406 33.082031 29.816406 C 33.472656 29.816406 33.789062 30.132812 33.789062 30.523438 C 33.789062 32.132812 35.089844 33.433594 36.699219 33.433594 C 37.015625 33.433594 37.320312 33.382812 37.609375 33.292969 C 37.96875 33.175781 38.351562 33.363281 38.484375 33.714844 C 38.675781 34.214844 39.195312 34.484375 39.800781 34.484375 C 40.445312 34.484375 41 34.097656 41.230469 33.554688 C 41.359375 33.242188 41.691406 33.070312 42.023438 33.136719 C 42.351562 33.207031 42.589844 33.496094 42.585938 33.835938 C 42.582031 35.015625 43.523438 35.960938 44.6875 35.960938 C 45.203125 35.960938 45.671875 35.777344 46.039062 35.476562 C 44.316406 34.953125 43.066406 33.359375 43.066406 31.46875 C 43.066406 31.078125 43.382812 30.761719 43.773438 30.761719 C 44.164062 30.761719 44.480469 31.078125 44.480469 31.46875 C 44.480469 33 45.71875 34.238281 47.25 34.238281 C 48.777344 34.238281 50.019531 33 50.019531 31.46875 C 50.019531 30.308594 49.375 29.230469 48.117188 29.230469 C 47.726562 29.230469 47.410156 28.914062 47.410156 28.523438 C 47.410156 28.132812 47.726562 27.816406 48.117188 27.816406 C 49.070312 27.816406 49.835938 28.160156 50.390625 28.71875 C 50.453125 28.523438 50.484375 28.316406 50.484375 28.105469 C 50.484375 27.550781 50.269531 27.042969 49.925781 26.65625 C 49.734375 26.4375 49.695312 26.125 49.828125 25.863281 C 49.992188 25.542969 50.082031 25.1875 50.082031 24.808594 C 50.082031 23.925781 49.585938 23.164062 48.835938 22.746094 C 48.617188 22.625 48.476562 22.394531 48.472656 22.140625 C 48.457031 21.132812 47.90625 20.261719 47.097656 19.8125 C 47.113281 19.957031 47.121094 20.105469 47.121094 20.253906 C 47.121094 21.121094 46.867188 21.929688 46.429688 22.605469 C 46.21875 22.933594 45.78125 23.027344 45.453125 22.816406 C 45.125 22.605469 45.027344 22.164062 45.242188 21.835938 C 45.535156 21.382812 45.707031 20.839844 45.707031 20.253906 C 45.707031 18.644531 44.398438 17.335938 42.785156 17.335938 C 42.199219 17.335938 41.65625 17.507812 41.199219 17.804688 C 41.398438 18.226562 41.507812 18.695312 41.507812 19.191406 C 41.507812 19.582031 41.191406 19.902344 40.800781 19.902344 C 40.410156 19.902344 40.09375 19.582031 40.09375 19.191406 C 40.09375 18.1875 39.277344 17.371094 38.269531 17.371094 C 37.523438 17.371094 36.882812 17.820312 36.597656 18.464844 C 36.5 18.695312 36.285156 18.855469 36.035156 18.882812 C 35.785156 18.914062 35.539062 18.808594 35.386719 18.605469 C 35.039062 18.148438 34.488281 17.847656 33.871094 17.847656 C 32.824219 17.847656 31.976562 18.695312 31.976562 19.742188 C 31.976562 20.21875 32.15625 20.65625 32.449219 20.992188 C 32.707031 21.285156 32.679688 21.730469 32.386719 21.988281 C 32.09375 22.246094 31.644531 22.21875 31.386719 21.925781 C 30.910156 21.386719 30.609375 20.691406 30.566406 19.925781 C 30.136719 20.1875 29.816406 20.617188 29.699219 21.117188 C 29.65625 21.300781 29.542969 21.460938 29.378906 21.558594 C 29.21875 21.660156 29.027344 21.6875 28.84375 21.644531 C 28.699219 21.609375 28.546875 21.589844 28.394531 21.589844 C 27.371094 21.589844 26.527344 22.410156 26.5 23.433594 C 26.492188 23.753906 26.269531 24.03125 25.957031 24.105469 C 24.675781 24.40625 24.136719 25.832031 24.746094 26.949219 C 24.859375 27.15625 24.863281 27.40625 24.753906 27.617188 C 24.121094 28.820312 24.957031 30.308594 26.359375 30.308594 C 27.15625 30.308594 27.835938 29.796875 28.082031 29.082031 C 28.210938 28.714844 28.613281 28.515625 28.980469 28.644531 C 29.351562 28.773438 29.546875 29.175781 29.421875 29.542969 C 29.183594 30.234375 28.714844 30.820312 28.113281 31.210938 Z M 30.6875 30.199219 C 30.710938 30.136719 30.734375 30.070312 30.757812 30.007812 C 31.140625 28.898438 30.550781 27.6875 29.445312 27.308594 C 28.335938 26.925781 27.128906 27.511719 26.746094 28.621094 C 26.691406 28.78125 26.539062 28.894531 26.359375 28.894531 C 26.039062 28.894531 25.863281 28.546875 26.007812 28.269531 C 26.335938 27.644531 26.328125 26.894531 25.988281 26.269531 C 25.824219 25.96875 25.929688 25.5625 26.277344 25.480469 C 27.21875 25.261719 27.890625 24.433594 27.914062 23.472656 C 27.921875 23.210938 28.136719 23.003906 28.394531 23.003906 C 28.433594 23.003906 28.46875 23.007812 28.503906 23.019531 C 29.054688 23.152344 29.636719 23.0625 30.121094 22.765625 C 30.148438 22.75 30.175781 22.730469 30.199219 22.714844 C 30.242188 22.765625 30.28125 22.8125 30.324219 22.859375 C 31.097656 23.742188 32.441406 23.828125 33.320312 23.050781 C 34.199219 22.277344 34.285156 20.9375 33.511719 20.058594 C 33.4375 19.972656 33.394531 19.863281 33.394531 19.742188 C 33.394531 19.476562 33.605469 19.261719 33.871094 19.261719 C 34.027344 19.261719 34.167969 19.339844 34.253906 19.457031 C 34.710938 20.0625 35.449219 20.378906 36.199219 20.289062 C 36.949219 20.203125 37.59375 19.722656 37.894531 19.03125 C 37.960938 18.886719 38.101562 18.785156 38.269531 18.785156 C 38.496094 18.785156 38.679688 18.96875 38.679688 19.191406 C 38.679688 20.363281 39.628906 21.316406 40.800781 21.316406 C 41.972656 21.316406 42.925781 20.363281 42.925781 19.191406 C 42.925781 19.046875 42.917969 18.898438 42.902344 18.753906 C 43.679688 18.816406 44.289062 19.464844 44.289062 20.253906 C 44.289062 20.554688 44.203125 20.835938 44.050781 21.070312 C 43.417969 22.054688 43.699219 23.367188 44.683594 24.003906 C 45.632812 24.617188 46.882812 24.375 47.542969 23.480469 C 47.710938 23.683594 47.914062 23.855469 48.152344 23.984375 C 48.453125 24.152344 48.667969 24.453125 48.667969 24.808594 C 48.667969 24.953125 48.632812 25.09375 48.566406 25.21875 C 48.375 25.59375 48.304688 26.003906 48.34375 26.40625 C 48.269531 26.402344 48.195312 26.398438 48.117188 26.398438 C 46.945312 26.398438 45.992188 27.351562 45.992188 28.523438 C 45.992188 29.695312 46.945312 30.644531 48.117188 30.644531 C 48.527344 30.644531 48.605469 31.089844 48.605469 31.46875 C 48.605469 32.214844 47.996094 32.824219 47.25 32.824219 C 46.5 32.824219 45.894531 32.214844 45.894531 31.46875 C 45.894531 30.296875 44.945312 29.347656 43.773438 29.347656 C 42.601562 29.347656 41.648438 30.296875 41.648438 31.46875 C 41.648438 31.550781 41.652344 31.636719 41.65625 31.71875 C 40.90625 31.800781 40.234375 32.277344 39.925781 33 C 39.90625 33.046875 39.855469 33.066406 39.800781 33.066406 C 39.785156 33.066406 39.765625 33.066406 39.746094 33.0625 C 39.296875 32.105469 38.199219 31.617188 37.175781 31.945312 C 37.027344 31.992188 36.863281 32.019531 36.699219 32.019531 C 35.871094 32.019531 35.203125 31.351562 35.203125 30.523438 C 35.203125 29.351562 34.253906 28.402344 33.082031 28.402344 C 31.953125 28.402344 31.027344 29.285156 30.960938 30.398438 C 30.898438 30.34375 30.835938 30.296875 30.765625 30.25 C 30.738281 30.234375 30.714844 30.214844 30.6875 30.199219 Z M 36.945312 22.863281 C 35.867188 22.605469 34.679688 22.898438 33.835938 23.742188 C 32.898438 24.675781 32.640625 26.03125 33.058594 27.199219 C 33.191406 27.566406 33.597656 27.757812 33.964844 27.625 C 34.332031 27.496094 34.523438 27.089844 34.390625 26.722656 C 34.152344 26.054688 34.300781 25.277344 34.835938 24.742188 C 35.320312 24.257812 36 24.089844 36.617188 24.238281 C 36.996094 24.328125 37.378906 24.09375 37.472656 23.714844 C 37.5625 23.335938 37.328125 22.953125 36.945312 22.863281 Z M 41.238281 23.929688 C 42.082031 24.949219 41.878906 26.414062 41.070312 27.199219 C 40.789062 27.46875 40.785156 27.917969 41.058594 28.199219 C 41.328125 28.480469 41.777344 28.484375 42.058594 28.210938 C 43.339844 26.96875 43.667969 24.644531 42.328125 23.027344 C 42.078125 22.726562 41.628906 22.683594 41.328125 22.933594 C 41.03125 23.183594 40.988281 23.628906 41.238281 23.929688 Z M 37.414062 34.789062 C 37.429688 34.859375 37.445312 34.929688 37.464844 35.003906 C 37.640625 35.664062 38.054688 36.382812 38.617188 36.863281 C 39.085938 37.265625 39.667969 37.492188 40.300781 37.242188 C 40.625 37.113281 41 37.242188 41.171875 37.546875 L 42.621094 40.054688 C 42.921875 40.570312 43.589844 40.75 44.105469 40.453125 C 44.625 40.152344 44.804688 39.484375 44.503906 38.96875 L 43.457031 37.15625 C 42.597656 36.835938 41.898438 36.1875 41.507812 35.359375 C 41.027344 35.699219 40.4375 35.898438 39.800781 35.898438 C 38.800781 35.898438 37.960938 35.476562 37.464844 34.78125 C 37.449219 34.785156 37.429688 34.789062 37.414062 34.789062 Z M 37.414062 34.789062 " fill-opacity="1" fill-rule="evenodd"/></g></svg>

<svg xmlns="http://www.w3.org/2000/svg" width="100" height="100" viewBox="0 0 75 75"><defs><clipPath id="a"><path d="M17.49 15.9h39.75v43.5H17.49Zm0 0"/></clipPath></defs><g clip-path="url(#a)"><path fill="currentColor" fill-rule="evenodd" d="M22.21 51.05h3.03c.15 0 .28.13.28.28v7.47c0 .15-.13.28-.28.28h-7.47a.3.3 0 0 1-.28-.28v-7.47c0-.15.12-.28.28-.28h3.03v-4.73c0-.39.31-.7.7-.7h14.77v-4.43c0-.4.31-.71.7-.71.4 0 .71.32.71.7v4.44h15.38c.4 0 .71.31.71.7v5.95l3.69 6.39q.08.15 0 .28a.3.3 0 0 1-.25.14h-8.3q-.17 0-.24-.14a.3.3 0 0 1 0-.28l3.69-6.39v-5.24H37.68v4.08a4.02 4.02 0 1 1-1.41 0v-4.08H22.2ZM30.9 18.3a3.3 3.3 0 0 1 4.93-1.23 3.2 3.2 0 0 1 4.5-.38 4.33 4.33 0 0 1 6.24 1.45 4.1 4.1 0 0 1 3.3 3.58 3.74 3.74 0 0 1 1.41 4.37q.62.88.63 2.02-.01 1.14-.67 2.03.2.64.2 1.33a4.2 4.2 0 0 1-3.7 4.16 3.5 3.5 0 0 1-2.53 1.71l.53.92a2.5 2.5 0 0 1-4.34 2.5l-1.17-2.03a3 3 0 0 1-2.52-.8 5.4 5.4 0 0 1-1.72-3.14A4.3 4.3 0 0 1 34 33.9a2.98 2.98 0 0 1-4.95-1.08 3 3 0 0 1-2.48-1.11h-.21a3.24 3.24 0 0 1-3.02-4.42 3.34 3.34 0 0 1 1.8-4.42 3.3 3.3 0 0 1 3.25-2.7h.15a3.3 3.3 0 0 1 2.35-1.88M28.11 31.2c.37.21.83.27 1.27.13q.31-.09.6.09.28.19.31.52c.07.81.75 1.45 1.57 1.45q.73-.02 1.2-.55a4.3 4.3 0 0 1-.69-2.33.71.71 0 0 1 1.42 0 2.9 2.9 0 0 0 3.82 2.77.7.7 0 0 1 .87.42c.2.5.72.77 1.32.77.65 0 1.2-.38 1.43-.93a.7.7 0 0 1 1.36.29 2.1 2.1 0 0 0 3.45 1.64 4.2 4.2 0 0 1-2.97-4.01.7.7 0 1 1 1.41 0 2.77 2.77 0 1 0 5.54 0c0-1.16-.65-2.24-1.9-2.24a.7.7 0 1 1 0-1.41c.95 0 1.72.34 2.27.9q.1-.3.1-.61c0-.56-.22-1.07-.56-1.45a.7.7 0 0 1-.1-.8q.24-.48.25-1.05c0-.88-.5-1.65-1.24-2.06a.7.7 0 0 1-.37-.6 2.7 2.7 0 0 0-1.37-2.34l.02.44q-.02 1.32-.69 2.36a.7.7 0 1 1-1.19-.77q.46-.7.47-1.59a2.92 2.92 0 0 0-4.51-2.45q.3.65.3 1.4c0 .38-.3.7-.7.7s-.7-.32-.7-.7a1.82 1.82 0 0 0-3.5-.74.7.7 0 0 1-.56.42.7.7 0 0 1-.65-.27 1.9 1.9 0 1 0-2.94 2.4.7.7 0 0 1-.06.99.7.7 0 0 1-1-.06 3.3 3.3 0 0 1-.82-2c-.43.26-.75.69-.87 1.19a.7.7 0 0 1-.32.44.7.7 0 0 1-.54.08q-.22-.05-.45-.05a1.9 1.9 0 0 0-1.89 1.84.7.7 0 0 1-.54.68 1.93 1.93 0 0 0-1.21 2.84c.1.2.11.46 0 .67a1.83 1.83 0 1 0 3.33 1.46.7.7 0 0 1 1.34.46q-.38 1.07-1.3 1.67m2.58-1.01.07-.2a2.12 2.12 0 1 0-4.01-1.38.4.4 0 0 1-.4.27c-.31 0-.49-.34-.34-.62.33-.63.32-1.38-.02-2-.17-.3-.06-.7.29-.79a2.1 2.1 0 0 0 1.63-2 .5.5 0 0 1 .48-.48q.06 0 .11.02c.55.13 1.14.04 1.62-.25l.08-.06.12.15a2.12 2.12 0 1 0 3.2-2.8.5.5 0 0 1-.13-.32.48.48 0 0 1 .86-.28 2.12 2.12 0 0 0 3.64-.43q.12-.23.38-.24a.4.4 0 0 1 .41.4 2.12 2.12 0 1 0 4.25 0q0-.22-.03-.44a1.5 1.5 0 0 1 1.15 2.32 2.13 2.13 0 0 0 3.5 2.41q.24.31.6.5c.3.17.52.47.52.83q0 .22-.1.4-.3.59-.23 1.2l-.22-.01a2.13 2.13 0 0 0 0 4.24c.4 0 .49.45.49.83a1.36 1.36 0 0 1-2.72 0 2.12 2.12 0 1 0-4.24 0v.25c-.74.08-1.42.56-1.72 1.28q-.04.07-.13.07h-.05a2.1 2.1 0 0 0-2.57-1.12 1.5 1.5 0 0 1-1.97-1.42 2.12 2.12 0 0 0-4.25-.13q-.08-.08-.2-.15zm6.26-7.34a3.3 3.3 0 0 0-3.9 4.34.7.7 0 0 0 1.34-.48 1.9 1.9 0 0 1 2.23-2.48.7.7 0 0 0 .85-.53.7.7 0 0 0-.52-.85m4.29 1.07a2.46 2.46 0 0 1-.17 3.27.7.7 0 0 0-.01 1 .7.7 0 0 0 1 .01 3.9 3.9 0 0 0 .27-5.18.7.7 0 0 0-1-.1c-.3.25-.34.7-.1 1M37.4 34.79l.05.21c.18.66.6 1.38 1.16 1.86.47.4 1.05.63 1.68.38a.7.7 0 0 1 .87.3l1.45 2.51a1.09 1.09 0 1 0 1.88-1.09l-1.04-1.8a3.5 3.5 0 0 1-1.95-1.8q-.74.53-1.7.54c-1 0-1.85-.42-2.35-1.12zm0 0"/></g></svg>
